!!!COM: Schubert, Franz
!!!CDT: 1797/01/31/-1828/11/19/
!!!CNT: Austrian
!!!OTL@@DE: Variationen &uuml;ber ein Thema von Anselm H&uuml;ttenbrenner
!!!OTL@EN: 13 Variations on a Theme by Anselm H&uuml;ttenbrenner
!!!OKY: A Minor
!!!SCT: D 576
!!!PDT: 1867///
!!!ODT: 1817/08//
!!!YEC: Copyright 2001 by Craig Stuart Sapp
!!!YEN: United States of America
!!!OMD: Var. 9
**kern	**kern	**kern
*clefF4	*clefG2	*clefG2
*k[f#c#g#]	*k[f#c#g#]	*k[f#c#g#]
*A:	*A:	*A:
*M2/4	*M2/4	*M2/4
*MM72	*MM72	*MM72
*>[A,A,B,B1,B,B2]	*>[A,A,B,B1,B,B2]	*>[A,A,B,B1,B,B2]
*>A	*>A	*>A
4AA	24e	8e
.	24c#	.
.	24E	.
.	24e	8e
.	24c#	.
.	24E	.
8BB	24d	8d
.	24B	.
.	24E	.
8C#	24c#	8c#
.	24A	.
.	24E	.
=152	=152	=152
2D	24c#	8c#
.	24A	.
.	24E	.
.	24B	8B
.	24G#	.
.	24E	.
.	24A	8A
.	24F#	.
.	24E	.
.	24B	8B
.	24G#	.
.	24E	.
=153	=153	=153
4C#	24c#	4c#
.	24A	.
.	24E	.
.	24c#	.
.	24A	.
.	24E	.
4FF#	24d#	4d#
.	24A	.
.	24F#	.
.	24d#	.
.	24A	.
.	24F#	.
=154	=154	=154
2GG#	24c#	8c#
.	24G#	.
.	24D#	.
.	24c	4.B#
.	24G#	.
.	24D#	.
.	24A	.
.	24F#	.
.	24D#	.
.	24G#	.
.	24F#	.
.	24D#	.
=155	=155	=155
8r	24a	8a
.	24d#	.
.	24B#	.
8GG#	24g#	8g#
.	24d#	.
.	24B#	.
8AA#	24f##	8f##
.	24d#	.
.	24c#	.
8BB#	24f#	8f#
.	24d#	.
.	24G#	.
=156	=156	=156
4C#	24f#	8f#
.	24c#	.
.	24G#	.
.	24e	8e
.	24c#	.
.	24G#	.
4AA	24f#	8f#
.	24c#	.
.	24A	.
.	24e	8e
.	24c#	.
.	24A	.
=157	=157	=157
4EE 4C#	24a	8a
.	24c#	.
.	24A	.
.	24e	8e
.	24c#	.
.	24A	.
*^	*	*
4EE	8D	24fn	8fn
.	.	24B	.
.	.	24G#	.
.	8E	24e	8e
.	.	24B	.
.	.	24G#	.
*v	*v	*	*
=158	=158	=158
2AAA 2AA	24d	8d
.	24A	.
.	24E	.
.	24c#	8c#
.	24A	.
.	24E	.
.	24d	8d
.	24A	.
.	24E	.
.	24c#	8c#
.	24A	.
.	24E	.
=159:|!|:	=159:|!|:	=159:|!|:
*>B	*>B	*>B
8r	24b	8b
.	24e	.
.	24c#	.
8AA 8E 8A	24a	8a
.	24e	.
.	24c#	.
8BB 8E 8G#	24g#	8g#
.	24e	.
.	24d	.
8C# 8E 8A	24a	8a
.	24e	.
.	24A	.
=160	=160	=160
4.D	24g#	8g#
.	24d	.
.	24A	.
.	24e#	8e#
.	24d	.
.	24A	.
.	24f#	4f#
.	24d	.
.	24A	.
8C# 8E 8F#	24f#	.
.	24en	.
.	24A#	.
=161	=161	=161
8BB 8F# 8B	24cc#	8cc#
.	24f#	.
.	24d#	.
8D#	24b	8b
.	24f#	.
.	24d#	.
8C# 8F# 8A#	24a#	8a#
.	24f#	.
.	24e	.
8D# 8F#	24cc#	16cc#
.	24f#	.
.	.	16b
.	24B	.
=162	=162	=162
4.E	24an	8an
.	24f#	.
.	24B	.
.	24f##	8f##
.	24e	.
.	24B	.
.	24g#	4g#
.	24e	.
.	24B	.
8D# 8F# 8G#	24g#	.
.	24f#	.
.	24b#	.
=163	=163	=163
*^	*	*
4C# 4E	8G#	24g#	8g#
.	.	24e	.
.	.	24c#	.
.	4.c#	24ee	8ee
.	.	24g#	.
.	.	24e	.
4A	.	24dd#	8dd#
.	.	24a	.
.	.	24e	.
.	.	24cc#	8cc#
.	.	24a	.
.	.	24e#	.
=164	=164	=164	=164
4F# 4A	8c#	24cc#	8cc#
.	.	24a	.
.	.	24f#	.
.	8A	24aa	8aa
.	.	24cc#	.
.	.	24a	.
4D#	8B	24gg#	8gg#
.	.	24dd#	.
.	.	24a	.
.	8cn	24ff#	8ff#
.	.	24ccn	.
.	.	24a	.
=165	=165	=165	=165
4E	4c#	24ff#	8ff#
.	.	24cc#	.
.	.	24a	.
.	.	24ee	8ee
.	.	24cc#	.
.	.	24a	.
4E	8d	24ffn	8ffn
.	.	24b	.
.	.	24g#	.
.	8e	24ee	8ee
.	.	24b	.
.	.	24g#	.
*v	*v	*	*
=166	=166	=166
*>B1	*>B1	*>B1
2AA 2E 2A	24dd	8dd
.	24a	.
.	24e	.
.	24cc#	8cc#
.	24a	.
.	24e	.
.	24dd	8dd
.	24a	.
.	24e	.
.	24cc#	8cc#
.	24a	.
.	24e	.
=167:|!	=167:|!	=167:|!
*>B2	*>B2	*>B2
4.AA 4.E 4.A	24dd	8dd
.	24a	.
.	24e	.
.	24cc#	8cc#
.	[24a	.
.	[24e 24a_	.
.	8e] 8a]	8cc#
8r	8r	8r
=|!	=|!	=|!
*-	*-	*-
